templates/main/source/images/shield.svg

<?xml version="1.0" encoding="utf-8"?>
<svg width="14px" height="16px" viewBox="0 0 14 16" version="1.1" xmlns:xlink="http://www.w3.org/1999/xlink" xmlns="http://www.w3.org/2000/svg">
  <desc>Created with Lunacy</desc>
  <path d="M9.68005 13.8818C11.8952 11.9802 13.0183 9.88887 13.0183 7.66568L13.0183 3.15154C13.0183 2.78899 12.7569 2.47898 12.3968 2.41443C10.3131 2.04103 8.43865 0.933029 7.50678 0.305787C7.20967 0.105756 6.86462 0 6.50914 0C6.15369 0 5.80867 0.105756 5.51152 0.305824C4.57966 0.933029 2.70518 2.04111 0.621558 2.41451C0.261435 2.47905 0 2.78906 0 3.15162L0 7.66568C0 12.3898 5.18536 15.3273 6.50921 16C7.08518 15.7076 8.39247 14.9871 9.68005 13.8818ZM3.28408 6.89005L5.70622 9.19563L10.0675 4.33973L11.1807 5.33962L5.79017 11.3415L2.25241 7.9739L3.28408 6.89005Z" id="shield" fill="#8C0014" fill-rule="evenodd" stroke="none" />
</svg>

<svg width="14" height="16" viewBox="0 0 14 16" xmlns:xlink="http://www.w3.org/1999/xlink" xmlns="http://www.w3.org/2000/svg"><path d="M9.68 13.882c2.215-1.902 3.338-3.993 3.338-6.216V3.152a.75.75 0 00-.621-.738C10.313 2.041 8.439.933 7.507.306a1.78 1.78 0 00-1.995 0C4.58.933 2.705 2.04.622 2.415A.75.75 0 000 3.152v4.514C0 12.39 5.185 15.327 6.51 16a16.6 16.6 0 003.17-2.118zM3.284 6.89l2.422 2.306 4.362-4.856 1.113 1-5.39 6.002-3.539-3.368L3.284 6.89z" id="shield" fill="#8C0014" fill-rule="evenodd" stroke="none"/></svg>
